other/sbb_cff.svg

<svg width="48" height="48" version="1.1" viewBox="0 0 48 48" xmlns="http://www.w3.org/2000/svg">
 <path d="m7 5c-1.108 0-2 0.892-2 2v34c0 1.108 0.892 2 2 2h34c1.108 0 2-0.892 2-2v-34c0-1.108-0.892-2-2-2h-34zm9.3965 11.506 2.2461 0.003907 2.2441 0.005859-2.9434 2.8984-2.9453 2.8965h3.6035 3.6035v-2.9023-2.9023h1.7949 1.7949v2.9023 2.9023h3.5723 3.5723l-2.2266-2.2031c-1.2247-1.2119-2.5239-2.4765-2.8867-2.8105-0.36285-0.33402-0.66016-0.64856-0.66016-0.69922 0-0.05065 0.98645-0.091797 2.1914-0.091797h2.1914l3.8262 3.8262 3.8242 3.8281-3.8262 3.8242-3.8262 3.8262h-2.1914c-1.2044 0-2.1895-0.040937-2.1895-0.091797s1.3156-1.3804 2.9219-2.9551l2.9199-2.8633h-3.6055-3.6055l-0.027344 2.9297-0.027343 2.9277h-1.7422-1.7422l-0.027343-2.9277-0.027344-2.9297-3.6152 0.003906-3.6133 0.001953 2.9258 2.8867c1.6087 1.5872 2.8938 2.9148 2.8574 2.9512-0.0364 0.0364-1.0193 0.066406-2.1855 0.066406h-2.1211l-7.6445-7.6523 7.5898-7.6523z" fill="#fff"/>
</svg>

<?xml version="1.0" encoding="UTF-8" standalone="no"?>
<svg
   xmlns:dc="http://purl.org/dc/elements/1.1/"
   xmlns:cc="http://creativecommons.org/ns#"
   xmlns:rdf="http://www.w3.org/1999/02/22-rdf-syntax-ns#"
   xmlns:svg="http://www.w3.org/2000/svg"
   xmlns="http://www.w3.org/2000/svg"
   xmlns:sodipodi="http://sodipodi.sourceforge.net/DTD/sodipodi-0.dtd"
   xmlns:inkscape="http://www.inkscape.org/namespaces/inkscape"
   width="48"
   height="48"
   viewBox="0 0 48 48"
   version="1.1"
   id="svg4"
   sodipodi:docname="square.svg"
   inkscape:version="0.92.3 (2405546, 2018-03-11)">
  <metadata
     id="metadata10">
    <rdf:RDF>
      <cc:Work
         rdf:about="">
        <dc:format>image/svg+xml</dc:format>
        <dc:type
           rdf:resource="http://purl.org/dc/dcmitype/StillImage" />
        <dc:title></dc:title>
      </cc:Work>
    </rdf:RDF>
  </metadata>
  <defs
     id="defs8" />
  <sodipodi:namedview
     pagecolor="#989898"
     bordercolor="#666666"
     borderopacity="1"
     objecttolerance="10"
     gridtolerance="10"
     guidetolerance="10"
     inkscape:pageopacity="0"
     inkscape:pageshadow="2"
     inkscape:window-width="1920"
     inkscape:window-height="1046"
     id="namedview6"
     showgrid="false"
     inkscape:zoom="4.9166667"
     inkscape:cx="-3.7767702"
     inkscape:cy="7.2455439"
     inkscape:window-x="0"
     inkscape:window-y="0"
     inkscape:window-maximized="1"
     inkscape:current-layer="svg4" />
  <path
     style="fill:#ffffff"
     d="M 7 5 C 5.892 5 5 5.892 5 7 L 5 41 C 5 42.108 5.892 43 7 43 L 41 43 C 42.108 43 43 42.108 43 41 L 43 7 C 43 5.892 42.108 5 41 5 L 7 5 z M 16.396484 16.505859 L 18.642578 16.509766 L 20.886719 16.515625 L 17.943359 19.414062 L 14.998047 22.310547 L 18.601562 22.310547 L 22.205078 22.310547 L 22.205078 19.408203 L 22.205078 16.505859 L 24 16.505859 L 25.794922 16.505859 L 25.794922 19.408203 L 25.794922 22.310547 L 29.367188 22.310547 L 32.939453 22.310547 L 30.712891 20.107422 C 29.488224 18.895567 28.189019 17.630893 27.826172 17.296875 C 27.463325 16.962856 27.166016 16.648311 27.166016 16.597656 C 27.166016 16.547006 28.15247 16.505859 29.357422 16.505859 L 31.548828 16.505859 L 35.375 20.332031 L 39.199219 24.160156 L 35.373047 27.984375 L 31.546875 31.810547 L 29.355469 31.810547 C 28.151111 31.810547 27.166016 31.76961 27.166016 31.71875 C 27.166016 31.66789 28.481647 30.33837 30.087891 28.763672 L 33.007812 25.900391 L 29.402344 25.900391 L 25.796875 25.900391 L 25.769531 28.830078 L 25.742188 31.757812 L 24 31.757812 L 22.257812 31.757812 L 22.230469 28.830078 L 22.203125 25.900391 L 18.587891 25.904297 L 14.974609 25.90625 L 17.900391 28.792969 C 19.509127 30.380156 20.794211 31.707743 20.757812 31.744141 C 20.721412 31.780541 19.738513 31.810547 18.572266 31.810547 L 16.451172 31.810547 L 12.628906 27.984375 L 8.8066406 24.158203 L 12.601562 20.332031 L 16.396484 16.505859 z "
     id="rect2"
     inkscape:label="CFF SBB" />
</svg>
